Obsidian-SemiLight/actions/22s/path-mode-polyline.svg

<svg viewBox="0 0 22 22" xmlns="http://www.w3.org/2000/svg"><path d="m3 3v3h2.0664062l6.9335938 10.402344v2.597656h3v-3h-2.066406l-6.933594-10.4003906v-.5996094h10v1h3v-3h-3v1h-10v-1zm1 1h1v1h-1zm13 0h1v1h-1zm-4 13h1v1h-1z" fill="#4d4d4d"/></svg>

<svg xmlns="http://www.w3.org/2000/svg" viewBox="0 0 22 22">
  <defs id="defs3051">
    <style type="text/css" id="current-color-scheme">
      .ColorScheme-Text {
        color:#4d4d4d;
      }
      .ColorScheme-Highlight {
        color:#3daee9;
      }
      </style>
  </defs>
 <path 
     style="fill:currentColor;fill-opacity:1;stroke:none" 
     d="M 3 3 L 3 6 L 5.0664062 6 L 12 16.402344 L 12 19 L 15 19 L 15 16 L 12.933594 16 L 6 5.5996094 L 6 5 L 16 5 L 16 6 L 19 6 L 19 3 L 16 3 L 16 4 L 6 4 L 6 3 L 3 3 z M 4 4 L 5 4 L 5 5 L 4 5 L 4 4 z M 17 4 L 18 4 L 18 5 L 17 5 L 17 4 z M 13 17 L 14 17 L 14 18 L 13 18 L 13 17 z "
     class="ColorScheme-Text"
     />
</svg>
